polaris-icons/icons/new-icons/SelectMinor.svg

<svg width="20" height="20" viewBox="0 0 20 20" fill="none" xmlns="http://www.w3.org/2000/svg">
<path d="M10.8839 4.32315C10.3957 3.83499 9.60427 3.83499 9.11612 4.32315L6.46967 6.96959C6.17678 7.26249 6.17678 7.73736 6.46967 8.03025C6.76256 8.32315 7.23744 8.32315 7.53033 8.03025L10 5.56058L12.4697 8.03025C12.7626 8.32315 13.2374 8.32315 13.5303 8.03025C13.8232 7.73736 13.8232 7.26249 13.5303 6.96959L10.8839 4.32315Z" fill="#4A4A4A"/>
<path d="M13.5303 13.0304L10.8839 15.6769C10.3957 16.165 9.60427 16.165 9.11612 15.6769L6.46967 13.0304C6.17678 12.7375 6.17678 12.2626 6.46967 11.9697C6.76256 11.6769 7.23744 11.6769 7.53033 11.9697L10 14.4394L12.4697 11.9697C12.7626 11.6769 13.2374 11.6769 13.5303 11.9697C13.8232 12.2626 13.8232 12.7375 13.5303 13.0304Z" fill="#4A4A4A"/>
</svg>

<svg viewBox="0 0 20 20" xmlns="http://www.w3.org/2000/svg"><path d="M10.884 4.323a1.25 1.25 0 0 0-1.768 0l-2.646 2.647a.75.75 0 0 0 1.06 1.06l2.47-2.47 2.47 2.47a.75.75 0 1 0 1.06-1.06l-2.646-2.647Z" fill="#5C5F62"/><path d="m13.53 13.03-2.646 2.647a1.25 1.25 0 0 1-1.768 0l-2.646-2.647a.75.75 0 0 1 1.06-1.06l2.47 2.47 2.47-2.47a.75.75 0 0 1 1.06 1.06Z" fill="#5C5F62"/></svg>
